images/addsectionimage/desktop-onboarding-image3-rtl.svg

<svg xmlns="http://www.w3.org/2000/svg" width="360" height="216" fill="none" viewBox="0 0 360 216">
	<g clip-path="url(#clip0_548_46077)">
		<mask id="mask0_548_46077" width="360" height="216" x="0" y="0" maskUnits="userSpaceOnUse" style="mask-type:luminance">
			<path fill="#fff" d="M0 0h360v216H0V0Z"/>
		</mask>
		<g mask="url(#mask0_548_46077)">
			<mask id="mask1_548_46077" width="360" height="216" x="0" y="0" maskUnits="userSpaceOnUse" style="mask-type:luminance">
				<path fill="#fff" d="M360 0H0v216h360V0Z"/>
			</mask>
			<g mask="url(#mask1_548_46077)">
				<path fill="#fff" d="M316 28H44v180h272V28Z"/>
				<path fill="#FC3" fill-opacity=".5" d="M316-14H44v229h272V-14Z"/>
				<path fill="#A2A9B1" d="M57.106 116h242.14v6H57.106v-6Zm0 32h242.14v6H57.106v-6Zm94.035 12h148.105v6H151.14v-6h.001Zm-94.036 0h90.509v6H57.105v-6Zm176.316 12h65.825v6h-65.825v-6Zm-37.614-38h103.439v8H195.807v-8Zm19.983-30h83.456v6H215.79v-6Zm-158.685 0h151.632v6H57.105v-6Zm.001-12h242.14v6H57.106v-6Zm0-12h242.14v6H57.106v-6Zm-.001-12h65.825v6H57.105v-6Zm70.527 0h171.614v6H127.632v-6Zm106.964-22h64.65v14h-64.65V46ZM57 22h152v6H57v-6Zm157 0h86v6h-86v-6ZM57 10h243v6H57v-6Zm0-12h243v6H57v-6Z"/>
				<path stroke="#FC3" stroke-width="4" d="M316-8H44v229h272V-8Z"/>
				<g filter="url(#filter0_d_548_46077)">
					<path fill="#fff" d="M126 119h108v90H126v-90Z"/>
					<path fill="#EAECF0" d="M126 185h108v24H126v-24Z"/>
					<path fill="#EAECF0" stroke="#A2A9B1" stroke-linecap="square" d="M214 191h12a2 2 0 0 1 2 2v8a2 2 0 0 1-2 2h-12a2 2 0 0 1-2-2v-8a2 2 0 0 1 2-2Z"/>
					<path fill="#54595D" fill-rule="evenodd" d="M218.632 198.668 216.964 197l-.564.564 2.232 2.236 4.8-4.8-.564-.568-4.236 4.236Z" clip-rule="evenodd"/>
					<path fill="#EAECF0" stroke="#A2A9B1" stroke-linecap="square" d="M134 191h12a2 2 0 0 1 2 2v8a2 2 0 0 1-2 2h-12a2 2 0 0 1-2-2v-8a2 2 0 0 1 2-2Z"/>
					<path fill="#54595D" fill-rule="evenodd" d="m141.5 193.4.6.6-3 3 3 3-.6.6-3.6-3.6 3.6-3.6Z" clip-rule="evenodd"/>
					<path fill="#EAECF0" stroke="#A2A9B1" stroke-linecap="square" d="M192 191h12a2 2 0 0 1 2 2v8a2 2 0 0 1-2 2h-12a2 2 0 0 1-2-2v-8a2 2 0 0 1 2-2Z"/>
					<path fill="#54595D" fill-rule="evenodd" d="m197.435 196.999-2.546-2.545.566-.566 2.546 2.546 2.544-2.545.566.565-2.545 2.545 2.546 2.546-.566.565-2.545-2.545-2.547 2.546-.565-.565 2.546-2.547Z" clip-rule="evenodd"/>
					<path fill="#EAECF0" d="M126 119h108v70H126v-70Z"/>
					<path fill="#A2A9B1" d="M132 159h45v4h-45v-4Zm0-20h96v4h-96v-4Zm0 27h45v4h-45v-4Zm9-19h36v8h-36v-8Zm10 30c0-.796.316-1.559.879-2.121a2.996 2.996 0 0 1 4.242 0 2.996 2.996 0 0 1 0 4.242 2.996 2.996 0 0 1-4.242 0A2.996 2.996 0 0 1 151 177Zm-19-2h16v4h-16v-4Z"/>
					<path fill="#EAF3FF" d="M234 119H126v14h108v-14Z"/>
					<path fill="#C8CCD1" d="M180 147h48v32h-48v-32Z"/>
					<path fill="#F8F9FA" fill-rule="evenodd" d="M197.6 156.6h12.8a1.6 1.6 0 0 1 1.6 1.6v9.6a1.6 1.6 0 0 1-1.6 1.6h-12.8a1.6 1.6 0 0 1-1.6-1.6v-9.6a1.6 1.6 0 0 1 1.6-1.6Zm12.936 10.4-3.272-4.2-2.336 2.808-3.264-4.208-4.2 5.6h13.072Z" clip-rule="evenodd"/>
					<path fill="#54595D" fill-rule="evenodd" d="M223.25 123.5h3.252a.997.997 0 0 1 .998.998V128H224v1h2.502a1.01 1.01 0 0 1 .707.293 1.01 1.01 0 0 1 .291.707v1h-9v-1c0-.553.447-1 .998-1H222v-1h-3.5v-3.502a1.001 1.001 0 0 1 .616-.922c.121-.05.251-.076.382-.076h3.252v-1.043a.75.75 0 1 1 .5 0v1.043Zm-2 3c.199 0 .39-.079.53-.22a.747.747 0 0 0 0-1.06.747.747 0 0 0-1.06 0 .747.747 0 0 0 0 1.06c.14.141.331.22.53.22Zm3.5 0c.199 0 .39-.079.53-.22a.747.747 0 0 0 0-1.06.747.747 0 0 0-1.06 0 .747.747 0 0 0 0 1.06c.14.141.331.22.53.22Z" clip-rule="evenodd"/>
					<path stroke="#A2A9B1" stroke-linecap="square" d="M125.5 118.5h109v91h-109v-91Z"/>
				</g>
			</g>
		</g>
	</g>
	<defs>
		<clipPath id="clip0_548_46077">
			<path fill="#fff" d="M0 0h360v216H0z"/>
		</clipPath>
		<filter id="filter0_d_548_46077" width="112" height="94" x="124" y="116" color-interpolation-filters="sRGB" filterUnits="userSpaceOnUse">
			<feFlood flood-opacity="0" result="BackgroundImageFix"/>
			<feColorMatrix in="SourceAlpha" result="hardAlpha" values="0 0 0 0 0 0 0 0 0 0 0 0 0 0 0 0 0 0 127 0"/>
			<feOffset dy="-1"/>
			<feGaussianBlur stdDeviation=".5"/>
			<feComposite in2="hardAlpha" operator="out"/>
			<feColorMatrix values="0 0 0 0 0 0 0 0 0 0 0 0 0 0 0 0 0 0 0.1 0"/>
			<feBlend in2="BackgroundImageFix" result="effect1_dropShadow_548_46077"/>
			<feBlend in="SourceGraphic" in2="effect1_dropShadow_548_46077" result="shape"/>
		</filter>
	</defs>
</svg>

<svg width="360" height="216" viewBox="0 0 360 216" fill="none" xmlns="http://www.w3.org/2000/svg">
<g clip-path="url(#clip0_548_46077)">
<mask id="mask0_548_46077" style="mask-type:luminance" maskUnits="userSpaceOnUse" x="0" y="0" width="360" height="216">
<path d="M0 0H360V216H0V0Z" fill="white"/>
</mask>
<g mask="url(#mask0_548_46077)">
<mask id="mask1_548_46077" style="mask-type:luminance" maskUnits="userSpaceOnUse" x="0" y="0" width="360" height="216">
<path d="M360 0H0V216H360V0Z" fill="white"/>
</mask>
<g mask="url(#mask1_548_46077)">
<path d="M316 28H44V208H316V28Z" fill="white"/>
<path d="M316 -14H44V215H316V-14Z" fill="#FFCC33" fill-opacity="0.5"/>
<path d="M57.106 116H299.246V122H57.106V116ZM57.106 148H299.246V154H57.106V148ZM151.141 160H299.246V166H151.14V160H151.141ZM57.105 160H147.614V166H57.105V160ZM233.421 172H299.246V178H233.421V172ZM195.807 134H299.246V142H195.807V134ZM215.79 104H299.246V110H215.79V104ZM57.105 104H208.737V110H57.105V104ZM57.106 92H299.246V98H57.106V92ZM57.106 80H299.246V86H57.106V80ZM57.105 68H122.93V74H57.105V68ZM127.632 68H299.246V74H127.632V68ZM234.596 46H299.246V60H234.596V46ZM57 22H209V28H57V22ZM214 22H300V28H214V22ZM57 10H300V16H57V10ZM57 -2H300V4H57V-2Z" fill="#A2A9B1"/>
<path d="M316 -8H44V221H316V-8Z" stroke="#FFCC33" stroke-width="4"/>
<g filter="url(#filter0_d_548_46077)">
<path d="M126 119H234V209H126V119Z" fill="white"/>
<path d="M126 185H234V209H126V185Z" fill="#EAECF0"/>
<path d="M214 191H226C226.53 191 227.039 191.211 227.414 191.586C227.789 191.961 228 192.47 228 193V201C228 201.53 227.789 202.039 227.414 202.414C227.039 202.789 226.53 203 226 203H214C213.47 203 212.961 202.789 212.586 202.414C212.211 202.039 212 201.53 212 201V193C212 192.47 212.211 191.961 212.586 191.586C212.961 191.211 213.47 191 214 191Z" fill="#EAECF0" stroke="#A2A9B1" stroke-linecap="square"/>
<path fill-rule="evenodd" clip-rule="evenodd" d="M218.632 198.668L216.964 197L216.4 197.564L218.632 199.8L223.432 195L222.868 194.432L218.632 198.668Z" fill="#54595D"/>
<path d="M134 191H146C146.53 191 147.039 191.211 147.414 191.586C147.789 191.961 148 192.47 148 193V201C148 201.53 147.789 202.039 147.414 202.414C147.039 202.789 146.53 203 146 203H134C133.47 203 132.961 202.789 132.586 202.414C132.211 202.039 132 201.53 132 201V193C132 192.47 132.211 191.961 132.586 191.586C132.961 191.211 133.47 191 134 191Z" fill="#EAECF0" stroke="#A2A9B1" stroke-linecap="square"/>
<path fill-rule="evenodd" clip-rule="evenodd" d="M141.5 193.4L142.1 194L139.1 197L142.1 200L141.5 200.6L137.9 197L141.5 193.4Z" fill="#54595D"/>
<path d="M192 191H204C204.53 191 205.039 191.211 205.414 191.586C205.789 191.961 206 192.47 206 193V201C206 201.53 205.789 202.039 205.414 202.414C205.039 202.789 204.53 203 204 203H192C191.47 203 190.961 202.789 190.586 202.414C190.211 202.039 190 201.53 190 201V193C190 192.47 190.211 191.961 190.586 191.586C190.961 191.211 191.47 191 192 191Z" fill="#EAECF0" stroke="#A2A9B1" stroke-linecap="square"/>
<path fill-rule="evenodd" clip-rule="evenodd" d="M197.435 196.999L194.889 194.454L195.455 193.888L198.001 196.434L200.545 193.889L201.111 194.454L198.566 196.999L201.112 199.545L200.546 200.11L198.001 197.565L195.454 200.111L194.889 199.546L197.435 196.999Z" fill="#54595D"/>
<path d="M126 119H234V189H126V119Z" fill="#EAECF0"/>
<path d="M132 159H177V163H132V159ZM132 139H228V143H132V139ZM132 166H177V170H132V166ZM141 147H177V155H141V147ZM151 177C151 176.204 151.316 175.441 151.879 174.879C152.441 174.316 153.204 174 154 174C154.796 174 155.559 174.316 156.121 174.879C156.684 175.441 157 176.204 157 177C157 177.796 156.684 178.559 156.121 179.121C155.559 179.684 154.796 180 154 180C153.204 180 152.441 179.684 151.879 179.121C151.316 178.559 151 177.796 151 177ZM132 175H148V179H132V175Z" fill="#A2A9B1"/>
<path d="M234 119H126V133H234V119Z" fill="#EAF3FF"/>
<path d="M180 147H228V179H180V147Z" fill="#C8CCD1"/>
<path fill-rule="evenodd" clip-rule="evenodd" d="M197.6 156.6H210.4C210.824 156.6 211.231 156.769 211.531 157.069C211.831 157.369 212 157.776 212 158.2V167.8C212 168.224 211.831 168.631 211.531 168.931C211.231 169.232 210.824 169.4 210.4 169.4H197.6C197.176 169.4 196.769 169.232 196.469 168.931C196.169 168.631 196 168.224 196 167.8V158.2C196 157.776 196.169 157.369 196.469 157.069C196.769 156.769 197.176 156.6 197.6 156.6ZM210.536 167L207.264 162.8L204.928 165.608L201.664 161.4L197.464 167H210.536Z" fill="#F8F9FA"/>
<path fill-rule="evenodd" clip-rule="evenodd" d="M223.25 123.5H226.502C226.767 123.5 227.02 123.606 227.207 123.793C227.394 123.98 227.5 124.234 227.5 124.498V128H224V129H226.502C226.633 129 226.763 129.026 226.885 129.076C227.006 129.126 227.116 129.2 227.209 129.293C227.301 129.386 227.375 129.496 227.425 129.617C227.475 129.739 227.5 129.869 227.5 130V131H218.5V130C218.5 129.447 218.947 129 219.498 129H222V128H218.5V124.498C218.5 124.367 218.526 124.237 218.576 124.116C218.626 123.995 218.7 123.885 218.792 123.792C218.885 123.7 218.995 123.626 219.116 123.576C219.237 123.526 219.367 123.5 219.498 123.5H222.75V122.457C222.583 122.398 222.443 122.282 222.353 122.129C222.264 121.977 222.231 121.798 222.261 121.623C222.291 121.449 222.381 121.291 222.517 121.177C222.652 121.063 222.823 121 223 121C223.177 121 223.348 121.063 223.483 121.177C223.619 121.291 223.709 121.449 223.739 121.623C223.769 121.798 223.736 121.977 223.647 122.129C223.557 122.282 223.417 122.398 223.25 122.457V123.5ZM221.25 126.5C221.449 126.5 221.64 126.421 221.78 126.28C221.921 126.14 222 125.949 222 125.75C222 125.551 221.921 125.36 221.78 125.22C221.64 125.079 221.449 125 221.25 125C221.051 125 220.86 125.079 220.72 125.22C220.579 125.36 220.5 125.551 220.5 125.75C220.5 125.949 220.579 126.14 220.72 126.28C220.86 126.421 221.051 126.5 221.25 126.5ZM224.75 126.5C224.949 126.5 225.14 126.421 225.28 126.28C225.421 126.14 225.5 125.949 225.5 125.75C225.5 125.551 225.421 125.36 225.28 125.22C225.14 125.079 224.949 125 224.75 125C224.551 125 224.36 125.079 224.22 125.22C224.079 125.36 224 125.551 224 125.75C224 125.949 224.079 126.14 224.22 126.28C224.36 126.421 224.551 126.5 224.75 126.5Z" fill="#54595D"/>
<path d="M125.5 118.5H234.5V209.5H125.5V118.5Z" stroke="#A2A9B1" stroke-linecap="square"/>
</g>
</g>
</g>
</g>
<defs>
<filter id="filter0_d_548_46077" x="124" y="116" width="112" height="94" filterUnits="userSpaceOnUse" color-interpolation-filters="sRGB">
<feFlood flood-opacity="0" result="BackgroundImageFix"/>
<feColorMatrix in="SourceAlpha" type="matrix" values="0 0 0 0 0 0 0 0 0 0 0 0 0 0 0 0 0 0 127 0" result="hardAlpha"/>
<feOffset dy="-1"/>
<feGaussianBlur stdDeviation="0.5"/>
<feComposite in2="hardAlpha" operator="out"/>
<feColorMatrix type="matrix" values="0 0 0 0 0 0 0 0 0 0 0 0 0 0 0 0 0 0 0.1 0"/>
<feBlend mode="normal" in2="BackgroundImageFix" result="effect1_dropShadow_548_46077"/>
<feBlend mode="normal" in="SourceGraphic" in2="effect1_dropShadow_548_46077" result="shape"/>
</filter>
<clipPath id="clip0_548_46077">
<rect width="360" height="216" fill="white"/>
</clipPath>
</defs>
</svg>
